!!!COA: Ockeghem, Johannes
!!!CDT: ~1425-1497/02/06
!!!OTL: Permanent vierge / Pulchra es / Sancta Dei genitrix
!!!AGN: Song; Chanson
!!!SCT: Ock3027
!!!SCA: Ock3027
!!!voices: 5
**kern	**text	**text	**text	**kern	**text	**kern	**text	**kern	**text	**text	**text	**kern	**text	**text	**text
*staff5	*staff5	*staff5	*staff5	*staff4	*staff4	*staff3	*staff3	*staff2	*staff2	*staff2	*staff2	*staff1	*staff1	*staff1	*staff1
*Ivox	*	*	*	*Ivox	*	*Ivox	*	*Ivox	*	*	*	*Ivox	*	*	*
*I"Contratenor 2	*	*	*	*I"Tenor 2	*	*I"Tenor 1	*	*I"Contratenor 1	*	*	*	*I"Discantus	*	*	*
*I'Ct2	*	*	*	*I'T2]	*	*I'T1	*	*I'Ct1	*	*	*	*I'D	*	*	*
*clefF4	*	*	*	*clefF4	*	*clefGv2	*	*clefGv2	*	*	*	*clefG2	*	*	*
*k[]	*	*	*	*k[]	*	*k[]	*	*k[]	*	*	*	*k[]	*	*	*
*M3/1	*	*	*	*M3/1	*	*M3/1	*	*M3/1	*	*	*	*M3/1	*	*	*
*met(O)	*	*	*	*met(O)	*	*met(O)	*	*met(O)	*	*	*	*met(O)	*	*	*
=1-	=1-	=1-	=1-	=1-	=1-	=1-	=1-	=1-	=1-	=1-	=1-	=1-	=1-	=1-	=1-
!!LO:TX:Z=18:t=Chanson-Motet (French text in rondeau form)
0.r	.	.	.	0.r	.	0.r	.	1d	Per-	Es-	Pre-	1d	Per-	Es-	Pre-
.	.	.	.	.	.	.	.	2.f	.	.	.	2a	.	.	.
.	.	.	.	.	.	.	.	.	.	.	.	1a	-ma-	-mer-	-or-
.	.	.	.	.	.	.	.	8eL	.	.	.	.	.	.	.
.	.	.	.	.	.	.	.	8dJ	.	.	.	.	.	.	.
.	.	.	.	.	.	.	.	2c	.	.	.	.	.	.	.
.	.	.	.	.	.	.	.	2d	-ma-	-mer-	-or-	2f	.	.	.
=2	=2	=2	=2	=2	=2	=2	=2	=2	=2	=2	=2	=2	=2	=2	=2
2G	Per-	Es-	Pre-	0.r	.	0.r	.	2B	-nent	-veil-	-don-	2g	-nent	-veil-	-don-
1F	.	.	.	.	.	.	.	2c	.	.	.	1a	.	.	.
.	.	.	.	.	.	.	.	2A	.	.	.	.	.	.	.
2D	-ma-	-mer-	-or-	.	.	.	.	1d	.	.	.	2f	.	.	.
1A	-nent	-veil-	-don-	.	.	.	.	.	.	.	.	1e	.	.	.
.	.	.	.	.	.	.	.	2c#i	.	.	.	.	.	.	.
=3	=3	=3	=3	=3	=3	=3	=3	=3	=3	=3	=3	=3	=3	=3	=3
0D	vierge,	-lant	-nee	0.r	.	0F	Pul-	2.d	vierge,	-lant	-nee	1d	vierge,	-lant	-nee
.	.	.	.	.	.	.	.	8cL	.	.	.	.	.	.	.
.	.	.	.	.	.	.	.	8BJ	.	.	.	.	.	.	.
.	.	.	.	.	.	.	.	2A	.	.	.	2r	.	.	.
.	.	.	.	.	.	.	.	2.F	plus	na-	sans	1f	plus	na-	sans
1D	plus	na-	sans	.	.	1F	-chra	.	.	.	.	.	.	.	.
.	.	.	.	.	.	.	.	4D	.	.	.	.	.	.	.
.	.	.	.	.	.	.	.	2F	.	.	.	2d	.	.	.
=4	=4	=4	=4	=4	=4	=4	=4	=4	=4	=4	=4	=4	=4	=4	=4
0AA	.	-ture	dif-	0.r	.	0A	es	1.E	.	-ture	.	2.c#	.	-ture	.
.	.	.	.	.	.	.	.	.	.	.	.	4d	.	.	.
.	.	.	.	.	.	.	.	.	.	.	.	1e	.	.	.
.	.	.	.	.	.	.	.	2F	.	.	.	.	.	.	.
1GG	dig-	.	-fe-	.	.	[1B-	et	1G	.	.	.	2r	.	.	.
.	.	.	.	.	.	.	.	.	.	.	.	[2d	dig-	et	dif-
=5	=5	=5	=5	=5	=5	=5	=5	=5	=5	=5	=5	=5	=5	=5	=5
1G	-ne	et	-ran-	0.r	.	1B-]	.	2r	.	.	.	2d]	.	.	.
.	.	.	.	.	.	.	.	2d	dig-	et	dif-	2d	-ne	loy	-fe-
4E	que	loy	-ce	.	.	0G	de-	1c	-ne	loy	-fe-	1g	.	.	.
2C	.	.	.	.	.	.	.	.	.	.	.	.	.	.	.
4D	.	.	.	.	.	.	.	.	.	.	.	.	.	.	.
1E	.	.	.	.	.	.	.	1B	que	.	-ran-	1g	que	com-	-ran-
=6	=6	=6	=6	=6	=6	=6	=6	=6	=6	=6	=6	=6	=6	=6	=6
1r	.	.	.	0D	Sanc-	1F	-co-	1A	.	.	.	0a	.	-mu-	.
0F	ne-	com-	au-	.	.	0A	-ra,	2A	ne-	com-	-ce au-	.	.	.	.
.	.	.	.	.	.	.	.	2.d	.	.	.	.	.	.	.
.	.	.	.	[1D	-ta	.	.	.	.	.	.	1a	ne-	.	-ce au-
.	.	.	.	.	.	.	.	4c	.	.	.	.	.	.	.
.	.	.	.	.	.	.	.	2d	.	.	.	.	.	.	.
=7	=7	=7	=7	=7	=7	=7	=7	=7	=7	=7	=7	=7	=7	=7	=7
1D	-su-	-mu-	-cu-	1D]	.	0.r	.	2A	-su-	-mu-	-cu-	2.f	-su-	.	-cu-
.	.	.	.	.	.	.	.	2B	.	.	.	.	.	.	.
.	.	.	.	.	.	.	.	.	.	.	.	8eL	.	.	.
.	.	.	.	.	.	.	.	.	.	.	.	8dJ	.	.	.
1AA	.	.	.	0C	.	.	.	2c	.	.	.	1e	-ne,	-ne,	-ne,
.	.	.	.	.	.	.	.	4B	.	.	.	.	.	.	.
.	.	.	.	.	.	.	.	4A	.	.	.	.	.	.	.
1E	.	.	.	.	.	.	.	2.G	.	.	.	2r	.	.	.
.	.	.	.	.	.	.	.	.	.	.	.	2c	Fem-	Tu	Du
.	.	.	.	.	.	.	.	8FL	.	.	.	.	.	.	.
.	.	.	.	.	.	.	.	8GJ	.	.	.	.	.	.	.
=8	=8	=8	=8	=8	=8	=8	=8	=8	=8	=8	=8	=8	=8	=8	=8
1D	-ne,	-ne,	-ne,	1F	de-	1A	fi-	1A	-ne,	-ne,	-ne,	0d	.	.	.
1GG	.	.	.	1G	-i	1G	-li-	1B	.	.	.	.	.	.	.
1D	Fem-	Tu	Du	1F	ge-	1A	-a	2r	.	.	.	1f	.	en-	Re-
.	.	.	.	.	.	.	.	2B	Fem-	Tu	Du	.	.	.	.
=9	=9	=9	=9	=9	=9	=9	=9	=9	=9	=9	=9	=9	=9	=9	=9
1C	-me	en-	Re-	1G	-ni-	0.r	.	1.c	-me	en-	Re-	2.e	-me	-fan-	-demp-
.	.	.	.	.	.	.	.	.	.	.	.	4d	.	.	.
2AA	.	.	.	1A	.	.	.	.	.	.	.	2e	.	.	.
1D	.	.	.	.	.	.	.	2B	.	.	.	2.f	cou-	.	-teur
.	.	.	.	1A	-trix,	.	.	1A	.	.	.	.	.	.	.
.	.	.	.	.	.	.	.	.	.	.	.	4g	.	.	.
[2F	cou-	-fan-	-demp-	.	.	.	.	.	.	.	.	[2a	.	.	fil-
=10	=10	=10	=10	=10	=10	=10	=10	=10	=10	=10	=10	=10	=10	=10	=10
4F]	.	.	.	2A	vir-	0.r	.	2d	cou-	-fan-	-demp-	4a]	.	.	.
4G	.	.	.	.	.	.	.	.	.	.	.	4f	.	.	.
2A	.	.	.	2A	-go	.	.	2c	.	.	.	1f	.	.	.
2D	.	.	.	1A	sem-	.	.	4B	.	.	.	.	.	.	.
.	.	.	.	.	.	.	.	4A	.	.	.	.	.	.	.
2F	.	.	.	.	.	.	.	1d	.	.	.	2d	.	.	.
1E	.	.	.	1G	-per,	.	.	.	.	.	.	1e	-verte	-tas	-le,
.	.	.	.	.	.	.	.	2c#i	.	.	.	.	.	.	.
=11	=11	=11	=11	=11	=11	=11	=11	=11	=11	=11	=11	=11	=11	=11	=11
1D	-verte	-tas	-teur	0.r	.	1F	Jhe-	1d	-verte	-tas	-teur	2r	.	.	.
.	.	.	.	.	.	.	.	.	.	.	.	2f	du	par	me-
0C	du	par	fil-	.	.	0G	-ru-	2G	du	par	fil-	4e	so-	su-	.
.	.	.	.	.	.	.	.	.	.	.	.	4f	.	.	.
.	.	.	.	.	.	.	.	1c	.	.	.	2.g	.	.	.
.	.	.	.	.	.	.	.	.	.	.	.	4f	.	.	.
.	.	.	.	.	.	.	.	2c	so-	su-	-le,	4e	.	.	.
.	.	.	.	.	.	.	.	.	.	.	.	4d	.	.	.
=12	=12	=12	=12	=12	=12	=12	=12	=12	=12	=12	=12	=12	=12	=12	=12
1D	.	.	-le,	1F	Ma-	1F	-sa-	2.A	.	.	me-	1d	.	.	.
.	.	.	.	.	.	.	.	4B	.	.	.	.	.	.	.
1r	.	.	.	0G	-ri-	0E	.	2c	.	.	.	2e	.	.	.
.	.	.	.	.	.	.	.	4B	.	-per-	.	1d	.	.	.
.	.	.	.	.	.	.	.	4A	.	.	.	.	.	.	.
1E	so-	su-	me-	.	.	.	.	1G	-leil	-nal	-re et	.	.	.	.
.	.	.	.	.	.	.	.	.	.	.	.	2c#i	.	-per-	.
=13	=13	=13	=13	=13	=13	=13	=13	=13	=13	=13	=13	=13	=13	=13	=13
2F	-leil	-per-	-re et	0A	.	0D	-lem,	1r	.	.	.	1d	-leil	-nal	-re et
2D	.	.	.	.	.	.	.	.	.	.	.	.	.	.	.
1F	de	-nal	.	.	.	.	.	1A	de	of-	nour-	1r	.	.	.
2E	jus-	of-	nour-	1G	-a,	1r	.	2B	jus-	.	-ri-	1e	de	of-	nour-
2C	.	.	.	.	.	.	.	2c	.	.	.	.	.	.	.
=14	=14	=14	=14	=14	=14	=14	=14	=14	=14	=14	=14	=14	=14	=14	=14
2D	-ti-	-fi-	-ri-	0.r	.	1.F	Jhe-	2A	.	.	.	2f	jus-	-fi-	-ri-
1BB-i	.	.	.	.	.	.	.	2.B-	-ti-	-fi-	.	4e	.	.	.
.	.	.	.	.	.	.	.	.	.	.	.	2d	-ti-	.	.
.	.	.	.	.	.	.	.	4G	.	.	.	4c	.	.	.
2C	.	.	.	.	.	2E	-ru-	1G	.	.	.	1c	.	.	.
1GG	-ce,	-ce,&	-ce,	.	.	1D	-sa-	.	.	.	.	.	.	.	.
.	.	.	.	.	.	.	.	2G	.	.	.	2B	.	.	.
=15	=15	=15	=15	=15	=15	=15	=15	=15	=15	=15	=15	=15	=15	=15	=15
1rN	.	.	.	1GN	in-	0.CN	-lem:	2.E	.	.	.	0.cN	-ce,	-ce,&	-ce,
.	.	.	.	.	.	.	.	4F	.	.	.	.	.	.	.
2E	Chief	.	Soi-	1G	-ter-	.	.	1GN	-ce,	-ce,	-ce,	.	.	.	.
2C	.	.	.	.	.	.	.	.	.	.	.	.	.	.	.
2.E	.	.	.	1G	-ce-	.	.	1r	.	.	.	.	.	.	.
4F	.	.	.	.	.	.	.	.	.	.	.	.	.	.	.
=16	=16	=16	=16	=16	=16	=16	=16	=16	=16	=16	=16	=16	=16	=16	=16
1G	.	.	.	1E	-de	0C	ter-	2.c	Chief	.	Soi-	1r	.	.	.
.	.	.	.	.	.	.	.	4d	.	.	.	.	.	.	.
1E	cou-	.	-ez	1G	pro	.	.	1e	.	.	.	1r	.	.	.
2F	-ron-	.	pour	1r	.	1D	.	1d	cou-	.	-ez	1A	Chief	.	Soi-
[2D	.	.	.	.	.	.	.	.	.	.	.	.	.	.	.
=17	=17	=17	=17	=17	=17	=17	=17	=17	=17	=17	=17	=17	=17	=17	=17
2D]	.	.	.	1A	no-	1F	-ri-	2.d	-ron-	.	pour	2.A	cou-	.	-ez
2F	.	.	.	.	.	.	.	.	.	.	.	.	.	.	.
.	.	.	.	.	.	.	.	4G	.	.	.	4B	.	.	.
1E	-ne	.	nous	1G	.	1G	.	1G	-ne	.	nous	1c	-ron-	.	pour
2D	par	.	ad-	1F	-bis	[1A	-bi-	1r	.	.	.	1d	-ne	.	nous
4C	.	.	.	.	.	.	.	.	.	.	.	.	.	.	.
4BB	.	.	.	.	.	.	.	.	.	.	.	.	.	.	.
=18	=18	=18	=18	=18	=18	=18	=18	=18	=18	=18	=18	=18	=18	=18	=18
1AA	.	.	-vo-	0.r	.	1A]	.	0c	par	.	ad-	2r	.	.	.
.	.	.	.	.	.	.	.	.	.	.	.	1e	par	.	ad-
0C	di-	.	-ca-	.	.	0G	-lis	.	.	.	.	.	.	.	.
.	.	.	.	.	.	.	.	.	.	.	.	1g	.	.	.
.	.	.	.	.	.	.	.	2.c	di-	.	-vo-	.	.	.	.
.	.	.	.	.	.	.	.	.	.	.	.	2e	di-	.	-vo-
.	.	.	.	.	.	.	.	4A	.	.	.	.	.	.	.
=19	=19	=19	=19	=19	=19	=19	=19	=19	=19	=19	=19	=19	=19	=19	=19
1D	-vin	.	-te	1F	ad	0.r	.	1.A	-vin	.	-ca-	2f	-vin	.	-ca-
.	.	.	.	.	.	.	.	.	.	.	.	4e	.	.	.
.	.	.	.	.	.	.	.	.	.	.	.	4d	.	.	.
2F	ar-	.	pro-	1.F	do-	.	.	.	.	.	.	1c	.	.	-te
2E	.	.	.	.	.	.	.	1c	ar-	.	-te	.	.	.	.
1D	-ti-	.	.	.	.	.	.	.	.	.	.	2r	.	.	.
.	.	.	.	2F	-mi-	.	.	2B	-ti-	.	pro-	2f	ar-	.	pro-
=20	=20	=20	=20	=20	=20	=20	=20	=20	=20	=20	=20	=20	=20	=20	=20
0C	-fi-	.	-pi-	0.E	-num	0G	ut	2.c	-fi-	.	-pi-	1.g	-ti-	.	.
.	.	.	.	.	.	.	.	4d	.	.	.	.	.	.	.
.	.	.	.	.	.	.	.	0e	-ce	.	-ce,	.	.	.	.
.	.	.	.	.	.	.	.	.	.	.	.	1.cc	-fi-	.	-pi-
1AA	.	.	.	.	.	[1A	cas-	.	.	.	.	.	.	.	.
=21	=21	=21	=21	=21	=21	=21	=21	=21	=21	=21	=21	=21	=21	=21	=21
1D	-ce	.	-ce,	0F	.	1A]	.	2r	.	.	.	1.a	.	.	.
.	.	.	.	.	.	.	.	1A	De	.	Toy	.	.	.	.
1r	.	.	.	.	.	0F	-to-	.	.	.	.	.	.	.	.
.	.	.	.	.	.	.	.	2.c	douze	.	sup-	1f	.	.	.
1A	De	.	Toy	1r	.	.	.	.	.	.	.	.	.	.	.
.	.	.	.	.	.	.	.	4B	.	.	.	.	.	.	.
.	.	.	.	.	.	.	.	2A	.	.	.	2d	.	.	.
=22	=22	=22	=22	=22	=22	=22	=22	=22	=22	=22	=22	=22	=22	=22	=22
1B	douze	.	sup-	1G	Jhe-	1E	-rum	2G	.	.	.	1e	-ce	.	-ce,
.	.	.	.	.	.	.	.	2B	.	.	.	.	.	.	.
2A	es-	.	-pli-	1F	-sum,	1r	.	2c	.	.	.	2r	.	.	.
1d	-toil-	.	.	.	.	.	.	2.A	.	.	.	1a	De	.	Toy
.	.	.	.	1E	.	1r	.	.	.	.	.	.	.	.	.
.	.	.	.	.	.	.	.	4F	.	.	.	.	.	.	.
2c#i	.	.	.	.	.	.	.	2G	.	.	.	2g	.	.	.
=23	=23	=23	=23	=23	=23	=23	=23	=23	=23	=23	=23	=23	=23	=23	=23
1d	-les	.	-ons,	0.r	.	1D	a-	2A	.	.	.	2f	douze	.	sup-
.	.	.	.	.	.	.	.	2B	es-	.	-pli-	2d	es-	.	-pli-
1G	.	.	.	.	.	1C	-ci-	1.c	-toil-	.	-ons,	2e	-toil-	.	.
.	.	.	.	.	.	.	.	.	.	.	.	2.c	.	.	.
2r	.	.	.	.	.	2E	.	.	.	.	.	.	.	.	.
.	.	.	.	.	.	.	.	.	.	.	.	4B	.	.	.
2D	su-	.	tr&egrave;s	.	.	2F	.	2d	.	.	.	2A	.	.	.
=24	=24	=24	=24	=24	=24	=24	=24	=24	=24	=24	=24	=24	=24	=24	=24
1E	.	.	.	0.r	.	0G	-es	1B	-les	.	.	4G	.	.	.
.	.	.	.	.	.	.	.	.	.	.	.	4A	.	.	.
.	.	.	.	.	.	.	.	.	.	.	.	4B	.	.	.
.	.	.	.	.	.	.	.	.	.	.	.	8AL	.	.	.
.	.	.	.	.	.	.	.	.	.	.	.	8BJ	.	.	.
0C	-pe-	.	bel-	.	.	.	.	2r	.	.	.	2.c	.	.	.
.	.	.	.	.	.	.	.	2.e	su-	.	tr&egrave;s	.	.	.	.
.	.	.	.	.	.	.	.	.	.	.	.	4d	.	.	.
.	.	.	.	.	.	1E	or-	.	.	.	.	1e	.	.	.
.	.	.	.	.	.	.	.	4c	.	.	.	.	.	.	.
.	.	.	.	.	.	.	.	2e	.	.	.	.	.	.	.
=25	=25	=25	=25	=25	=25	=25	=25	=25	=25	=25	=25	=25	=25	=25	=25
1D	-di-	.	-le,	0.r	.	1F	-di-	2d	-pe-	.	bel-	1A	-les	.	-ons,
.	.	.	.	.	.	.	.	4A	.	.	.	.	.	.	.
.	.	.	.	.	.	.	.	4B	.	.	.	.	.	.	.
0AA	.	.	.	.	.	0E	-na-	2c	.	.	.	2r	.	.	.
.	.	.	.	.	.	.	.	4d	.	.	.	1a	su-	.	tr&egrave;s
.	.	.	.	.	.	.	.	2e	.	.	.	.	.	.	.
.	.	.	.	.	.	.	.	4.c#i	-di-	.	-le,	.	.	.	.
.	.	.	.	.	.	.	.	.	.	.	.	2a	-pe-	.	bel-
.	.	.	.	.	.	.	.	8B	.	.	.	.	.	.	.
.	.	.	.	.	.	.	.	4c#i	.	.	.	.	.	.	.
=26	=26	=26	=26	=26	=26	=26	=26	=26	=26	=26	=26	=26	=26	=26	=26
1A	-tant	.	cle-	1r	.	1D	.	2d	-tant	.	cle-	2.f	-di-	.	-le,
.	.	.	.	.	.	.	.	4c	.	.	.	.	.	.	.
.	.	.	.	.	.	.	.	4B	.	.	.	4g	.	.	.
2.F	.	.	-re,	1r	.	1D	-ta,	1A	.	.	-re,	1a	-tant	.	cle-
4G	.	.	.	.	.	.	.	.	.	.	.	.	.	.	.
1A	.	.	.	1D	Jhe-	1r	.	2.F	la	.	bru-	1d	la	.	-re,
.	.	.	.	.	.	.	.	4G	.	.	.	.	.	.	.
=27	=27	=27	=27	=27	=27	=27	=27	=27	=27	=27	=27	=27	=27	=27	=27
1r	.	.	.	1D	-sum	0.r	.	1A	lu-	.	.	1f	lu-	.	bru-
2D	la	.	bru-	2F	Chris-	.	.	2B	.	.	.	2d	.	.	.
1C	lu-	.	.	2E	.	.	.	4c	.	.	.	2.e	.	.	.
.	.	.	.	.	.	.	.	4d	.	.	.	.	.	.	.
.	.	.	.	1G	.	.	.	2e	.	.	.	.	.	.	.
.	.	.	.	.	.	.	.	.	.	.	.	4c	.	.	.
2BB	.	.	.	.	.	.	.	2d	.	.	.	2d	.	.	.
=28	=28	=28	=28	=28	=28	=28	=28	=28	=28	=28	=28	=28	=28	=28	=28
2AA	.	.	.	2A	.	0.r	.	1c	.	.	.	2f	.	.	.
1C	.	.	.	1G	.	.	.	.	.	.	.	2.e	.	.	.
.	.	.	.	.	.	.	.	4c	-ne,	.	-ne,	.	.	.	.
.	.	.	.	.	.	.	.	4B	.	.	.	4d	.	.	.
2D	.	.	.	2F	.	.	.	1A	.	.	.	2.d	.	.	.
1AA	-ne,	.	-ne,	1E	.	.	.	.	.	.	.	.	.	.	.
.	.	.	.	.	.	.	.	.	.	.	.	4c#i	.	.	.
.	.	.	.	.	.	.	.	2A	la	.	bru-	4c#i	.	.	.
.	.	.	.	.	.	.	.	.	.	.	.	4B	.	.	.
=29	=29	=29	=29	=29	=29	=29	=29	=29	=29	=29	=29	=29	=29	=29	=29
1A	la	.	bru-	[0.Dl	-tum.	1D	or-	1.F	lu-	.	.	[0.dl	-ne.	.	-ne.
0D	lu-	.	.	.	.	2.F	-di-	.	.	.	.	.	.	.	.
.	.	.	.	.	.	.	.	1B-i	.	.	.	.	.	.	.
.	.	.	.	.	.	4D	.	.	.	.	.	.	.	.	.
.	.	.	.	.	.	2.F	-na-	.	.	.	.	.	.	.	.
.	.	.	.	.	.	.	.	2A	.	.	.	.	.	.	.
.	.	.	.	.	.	4G	.	.	.	.	.	.	.	.	.
=30	=30	=30	=30	=30	=30	=30	=30	=30	=30	=30	=30	=30	=30	=30	=30
0.Dl	-ne.	.	-ne.	0.D]	.	1A	.	0.Al	-ne.	.	-ne.	0.d]	.	.	.
.	.	.	.	.	.	0Dl	-ta.	.	.	.	.	.	.	.	.
==	==	==	==	==	==	==	==	==	==	==	==	==	==	==	==
*-	*-	*-	*-	*-	*-	*-	*-	*-	*-	*-	*-	*-	*-	*-	*-
!!!RDF**kern: l = long note in original notation
!!!RDF**kern: i = editorial accidental
!!!RDF**kern: V = start of tuplet marker
!!!RDF**kern: Z = end of tuplet marker
!!!RDF**kern: N = signum congruentiae
!!!ENC: Jesse Rodin 17 April 2018
!!!END: 2018/04/17/
!!!EED: Jesse Rodin
!!!EEV: 2018/07/23/
!!!ONB: Translated from MusicXML and edited on 2018/07/23/ by Craig Sapp
!!muse2ps: C^@{COA}?\nEd. @{EED}^i2I150v85,95,95,95,150Q16z18l2550t120c80
